Origami/32x32/apps/emerald-theme-manager-icon.svg

<svg width="32" height="32" version="1" xmlns="http://www.w3.org/2000/svg">
 <path d="m9.1428167 4.0000007a1.7144668 1.8002018 0 0 0 -1.250565 0.5686592l-6.4286086 7.2000881a1.7144668 1.8002018 0 0 0 -0.048549 2.405595l13.285791 16.200196a1.7144668 1.8002018 0 0 0 2.598228 0l13.28579-16.200196a1.7144668 1.8002018 0 0 0 -0.048543 -2.405595l-6.428611-7.2000881a1.7144668 1.8002018 0 0 0 -1.250569 -0.5686592h-6.857182-6.8571813z" style="opacity:.2"/>
 <path d="m9.1428167 3.0000006a1.7144668 1.8002018 0 0 0 -1.250565 0.5686592l-6.4286086 7.2000882a1.7144668 1.8002018 0 0 0 -0.048549 2.405595l13.285791 16.200196a1.7144668 1.8002018 0 0 0 2.598228 0l13.28579-16.200196a1.7144668 1.8002018 0 0 0 -0.048543 -2.405595l-6.428611-7.2000882a1.7144668 1.8002018 0 0 0 -1.250569 -0.5686592h-6.857182-6.8571813z" style="fill:#87d53c"/>
 <path d="m9.1425781 3c-0.1151848-4.39e-5 -0.2286929 0.0115659-0.3398437 0.0351562a1.7144668 1.8002018 0 0 0 -0.0097656 0.0019532c-0.0034247 7.484e-4 -0.0063465 0.003136-0.0097657 0.0039062-0.1057813 0.0238281-0.2094068 0.057524-0.3085937 0.1015625a1.7144668 1.8002018 0 0 0 -0.0078125 0.0039063c-0.006667 0.0030016-0.012901 0.0066754-0.0195313 0.0097656-0.1000264 0.0466197-0.194997 0.1018673-0.2851562 0.1679688-0.0045075 0.0033047-0.0091928 0.0064139-0.0136719 0.0097656-0.0917346 0.0686451-0.177608 0.146732-0.2558594 0.234375l-6.4296875 7.2011716a1.7144668 1.8002018 0 0 0 -0.4609375 1.230469h29.998047a1.7144668 1.8002018 0 0 0 -0.462891 -1.230469l-6.429687-7.2011716c-0.078874-0.08834-0.165253-0.1672949-0.257813-0.2363282a1.7144668 1.8002018 0 0 0 -0.017578 -0.0117187c-0.092048-0.0669004-0.188825-0.1232615-0.291015-0.1699219a1.7144668 1.8002018 0 0 0 -0.007813 -0.0039062c-0.0986-0.0443911-0.20142-0.0791476-0.306641-0.1035156a1.7144668 1.8002018 0 0 0 -0.003906 0 1.7144668 1.8002018 0 0 0 -0.042968 -0.0097657c-0.105667-0.0212417-0.213044-0.0332447-0.322266-0.0332031h-6.857422-6.8574219z" style="opacity:.2"/>
 <path d="m16.000001 3 6.999999 9h-14z" style="fill:#87d53c"/>
 <path d="m16 30 7-18h-14z" style="opacity:.2"/>
 <path d="m9.1425781 3a1.7144668 1.8002018 0 0 0 -1.25 0.5683594l-6.4296875 7.2011716a1.7144668 1.8002018 0 0 0 -0.3925781 1.728516 1.7144668 1.8002018 0 0 1 0.3925781 -0.728516l6.4296875-7.2011716a1.7144668 1.8002018 0 0 1 1.25 -0.5683594h6.8574219 6.857422a1.7144668 1.8002018 0 0 1 1.25 0.5683594l6.429687 7.2011716a1.7144668 1.8002018 0 0 1 0.394532 0.726563 1.7144668 1.8002018 0 0 0 -0.394532 -1.726563l-6.429687-7.2011716a1.7144668 1.8002018 0 0 0 -1.25 -0.5683594h-6.857422-6.8574219z" style="fill:#ffffff;opacity:.2"/>
</svg>

<svg xmlns="http://www.w3.org/2000/svg" width="32" height="32" version="1">
 <path style="opacity:0.2" d="M 9.1428167,4.0000007 A 1.7144668,1.8002018 0 0 0 7.8922517,4.5686599 L 1.4636431,11.768748 a 1.7144668,1.8002018 0 0 0 -0.048549,2.405595 L 14.700885,30.374539 a 1.7144668,1.8002018 0 0 0 2.598228,0 L 30.584903,14.174343 A 1.7144668,1.8002018 0 0 0 30.53636,11.768748 L 24.107749,4.5686599 A 1.7144668,1.8002018 0 0 0 22.85718,4.0000007 l -6.857182,0 -6.8571813,0 z"/>
 <path style="fill:#87d53c" d="M 9.1428167,3.0000006 A 1.7144668,1.8002018 0 0 0 7.8922517,3.5686598 L 1.4636431,10.768748 a 1.7144668,1.8002018 0 0 0 -0.048549,2.405595 L 14.700885,29.374539 a 1.7144668,1.8002018 0 0 0 2.598228,0 L 30.584903,13.174343 A 1.7144668,1.8002018 0 0 0 30.53636,10.768748 L 24.107749,3.5686598 A 1.7144668,1.8002018 0 0 0 22.85718,3.0000006 l -6.857182,0 -6.8571813,0 z"/>
 <path style="opacity:0.2" d="M 9.1425781 3 C 9.0273933 2.9999561 8.9138852 3.0115659 8.8027344 3.0351562 A 1.7144668 1.8002018 0 0 0 8.7929688 3.0371094 C 8.7895441 3.0378578 8.7866223 3.0402454 8.7832031 3.0410156 C 8.6774218 3.0648437 8.5737963 3.0985396 8.4746094 3.1425781 A 1.7144668 1.8002018 0 0 0 8.4667969 3.1464844 C 8.4601299 3.149486 8.4538959 3.1531598 8.4472656 3.15625 C 8.3472392 3.2028697 8.2522686 3.2581173 8.1621094 3.3242188 C 8.1576019 3.3275235 8.1529166 3.3306327 8.1484375 3.3339844 C 8.0567029 3.4026295 7.9708295 3.4807164 7.8925781 3.5683594 L 1.4628906 10.769531 A 1.7144668 1.8002018 0 0 0 1.0019531 12 L 31 12 A 1.7144668 1.8002018 0 0 0 30.537109 10.769531 L 24.107422 3.5683594 C 24.028548 3.4800194 23.942169 3.4010645 23.849609 3.3320312 A 1.7144668 1.8002018 0 0 0 23.832031 3.3203125 C 23.739983 3.2534121 23.643206 3.197051 23.541016 3.1503906 A 1.7144668 1.8002018 0 0 0 23.533203 3.1464844 C 23.434603 3.1020933 23.331783 3.0673368 23.226562 3.0429688 A 1.7144668 1.8002018 0 0 0 23.222656 3.0429688 A 1.7144668 1.8002018 0 0 0 23.179688 3.0332031 C 23.074021 3.0119614 22.966644 2.9999584 22.857422 3 L 16 3 L 9.1425781 3 z"/>
 <path style="fill:#87d53c" d="M 16.000001,3 23,12 9.0000002,12 Z"/>
 <path style="opacity:0.2" d="M 16,30 23,12 9,12 Z"/>
 <path style="opacity:0.2;fill:#ffffff" d="M 9.1425781 3 A 1.7144668 1.8002018 0 0 0 7.8925781 3.5683594 L 1.4628906 10.769531 A 1.7144668 1.8002018 0 0 0 1.0703125 12.498047 A 1.7144668 1.8002018 0 0 1 1.4628906 11.769531 L 7.8925781 4.5683594 A 1.7144668 1.8002018 0 0 1 9.1425781 4 L 16 4 L 22.857422 4 A 1.7144668 1.8002018 0 0 1 24.107422 4.5683594 L 30.537109 11.769531 A 1.7144668 1.8002018 0 0 1 30.931641 12.496094 A 1.7144668 1.8002018 0 0 0 30.537109 10.769531 L 24.107422 3.5683594 A 1.7144668 1.8002018 0 0 0 22.857422 3 L 16 3 L 9.1425781 3 z"/>
</svg>
